X: 410
T: Guanggurhan huijia hao nanhuo
L: 1/8
M: 2/4
K: Bb
d'> c' d' f' [I:setbarnb 1]| 
gb2g/ f/ | 
d c d f' | 
c4 | 
d'> c' d' f' | 
gb2g/ f/ | 
d f g d' | 
f4 |]

@@@ Tune index: 9284
